X:635
T: WAS GOTT THUT DAS IST WOHLGETHAN
N: E2001
O: Europa, Mitteleuropa, Deutschland
R: geistlich, Dank -, Lob - Lied, Choral
M: 4/4
L: 1/8
K: G
D2 | G2A2B2c2 | d2c2B2z2 | z2
e2d2c2 | B2B2A4 | G4z2
D2 | G2A2B2c2 | d2c2B2z2 | z2
e2d2c2 | B2B2A4 | G4z2
d2 | e2e2A2A2 | d2d2G2z
B | A2G2F2F2 | E4D2
d2 | c2B2A2B2 | A4G2

